src/pos-icons/shield-remove.svg

<svg height="24" viewBox="0 0 24 24" width="24" xmlns="http://www.w3.org/2000/svg"><path d="m19.43 19 2.07 2.11-1.38 1.39-2.09-2.09-2.12 2.12-1.41-1.42 2.11-2.11-2.11-2.14 1.38-1.39 2.12 2.12 2.12-2.12 1.43 1.43zm-7.43-18 9 4v6c0 .9-.1 1.78-.29 2.65-.81-.42-1.71-.65-2.71-.65a6 6 0 0 0 -6 6c0 1.36.45 2.62 1.22 3.62l-1.22.38c-5.16-1.26-9-6.45-9-12v-6z"/></svg>

<?xml version="1.0" encoding="UTF-8"?><!DOCTYPE svg PUBLIC "-//W3C//DTD SVG 1.1//EN" "http://www.w3.org/Graphics/SVG/1.1/DTD/svg11.dtd"><svg xmlns="http://www.w3.org/2000/svg" xmlns:xlink="http://www.w3.org/1999/xlink" version="1.1" id="mdi-shield-remove" width="24" height="24" viewBox="0 0 24 24"><path d="M19.43,19L21.5,21.11L20.12,22.5L18.03,20.41L15.91,22.53L14.5,21.11L16.61,19L14.5,16.86L15.88,15.47L18,17.59L20.12,15.47L21.55,16.9L19.43,19M12,1L21,5V11C21,11.9 20.9,12.78 20.71,13.65C19.9,13.23 19,13 18,13A6,6 0 0,0 12,19C12,20.36 12.45,21.62 13.22,22.62L12,23C6.84,21.74 3,16.55 3,11V5L12,1Z" /></svg>
